src/assets/icons/arrow-right-arrow-left.svg

<svg width="14" height="14" viewBox="0 0 14 14" fill="none" xmlns="http://www.w3.org/2000/svg">
<g id="arrow-right-arrow-left">
<g clip-path="url(#clip0_154_2630)">
<g id="Vector">
<path d="M10.5855 0.650026C10.8501 0.385477 11.279 0.385477 11.5435 0.650026L13.8016 2.90809C13.9339 3.04036 14 3.21373 14 3.3871C14 3.47895 13.9817 3.56653 13.9486 3.6464C13.9155 3.7263 13.8665 3.80116 13.8016 3.86611L11.5435 6.12417C11.279 6.38872 10.8501 6.38872 10.5855 6.12417C10.321 5.85962 10.321 5.4307 10.5855 5.16615L11.6871 4.06452H0.677419C0.303291 4.06452 0 3.76123 0 3.3871C0 3.01297 0.303291 2.70968 0.677419 2.70968H11.6871L10.5855 1.60804C10.321 1.34349 10.321 0.914575 10.5855 0.650026Z" fill="black"/>
<path d="M3.41449 8.83385C3.67904 8.5693 3.67904 8.14038 3.41449 7.87583C3.14994 7.61128 2.72102 7.61128 2.45648 7.87583L0.198412 10.1339C0.0661371 10.2662 0 10.4395 0 10.6129C0 10.7048 0.0182805 10.7923 0.0514017 10.8722C0.0844596 10.9521 0.133463 11.027 0.198412 11.0919L2.45648 13.35C2.72102 13.6145 3.14994 13.6145 3.41449 13.35C3.67904 13.0854 3.67904 12.6565 3.41449 12.392L2.31285 11.2903H13.3226C13.6967 11.2903 14 10.987 14 10.6129C14 10.2388 13.6967 9.93548 13.3226 9.93548H2.31285L3.41449 8.83385Z" fill="black"/>
</g>
</g>
</g>
<defs>
<clipPath id="clip0_154_2630">
<rect width="14" height="14" fill="white"/>
</clipPath>
</defs>
</svg>

<svg xmlns="http://www.w3.org/2000/svg" fill="none" viewBox="0 0 14 14"><g fill="#000" clip-path="url(#a)"><path d="M10.586.65a.677.677 0 0 1 .957 0l2.259 2.258a.675.675 0 0 1 0 .958l-2.258 2.258a.677.677 0 1 1-.959-.958l1.102-1.101H.677a.677.677 0 1 1 0-1.355h11.01l-1.101-1.102a.68.68 0 0 1 0-.958M3.414 8.834a.677.677 0 0 0-.958-.958L.198 10.134a.675.675 0 0 0 0 .958l2.258 2.258a.678.678 0 0 0 .958-.958L2.313 11.29h11.01a.677.677 0 0 0 0-1.355H2.313z"/></g><defs><clipPath id="a"><path fill="#fff" d="M0 0h14v14H0z"/></clipPath></defs></svg>
